packages/core/src/svgs/tokens/mono/OPIUM.svg

<svg width="24" height="24" viewBox="0 0 24 24" fill="none" xmlns="http://www.w3.org/2000/svg">
<path fill-rule="evenodd" clip-rule="evenodd" d="M2 12.2778C2.01112 9.86673 3.38889 5.05566 8.86668 5.05566C9.55555 5.089 11.2278 5.41677 12.4 6.45567C13.8722 7.75011 14.1 7.84456 14.85 7.84456C15.4501 7.84456 16.1445 7.58344 16.4167 7.45567C16.6666 7.34456 17.3333 7.12234 17.9833 7.12234C18.8 7.12234 22 7.87788 22 11.9723C22 16.0668 18.85 16.889 18.0834 16.889C17.4591 16.8921 16.8409 16.7673 16.2667 16.5223C15.9333 16.3779 15.4333 16.1613 14.8223 16.1613C14.2778 16.1613 13.25 16.9112 12.8 17.2835C12.2333 17.839 10.6 18.9446 8.62779 18.9446C6.16668 18.9446 2 17.1001 2 12.2778ZM6.44446 12.3891C6.39445 11.1501 6.93889 8.66679 9.51666 8.66679H9.53895C9.69995 8.66679 10.5 8.64455 11.6111 9.36123L11.7167 9.42789C12.8166 10.139 13.3722 10.4945 14.6278 10.4945C15.6667 10.4945 16.4889 10.0667 16.7723 9.85571C17.0983 9.64753 17.4701 9.52171 17.8556 9.489C18.3556 9.489 19.7778 9.97795 19.7778 11.989C19.7778 14.0001 18.3 14.5501 17.8556 14.5501C17.5 14.5501 16.9833 14.2946 16.7723 14.1612C16.1248 13.7669 15.3856 13.5486 14.6278 13.5279C13.8804 13.5483 13.1519 13.7669 12.5167 14.1612C12.0055 14.5501 10.7166 15.3335 9.62775 15.3335C8.27779 15.3335 6.45001 13.9668 6.45001 12.3891H6.44446Z" fill="white"/>
</svg>

<svg xmlns="http://www.w3.org/2000/svg" width="24" height="24" fill="none" viewBox="0 0 24 24">
    <path fill="#fff" fill-rule="evenodd" d="M2 12.278c.011-2.411 1.389-7.222 6.867-7.222.689.033 2.36.36 3.533 1.4 1.472 1.294 1.7 1.389 2.45 1.389.6 0 1.295-.262 1.567-.39.25-.11.916-.333 1.566-.333.817 0 4.017.756 4.017 4.85 0 4.095-3.15 4.917-3.917 4.917a4.6 4.6 0 0 1-1.816-.367c-.334-.144-.834-.36-1.445-.36-.544 0-1.572.75-2.022 1.122-.567.555-2.2 1.66-4.172 1.66C6.167 18.945 2 17.1 2 12.279m4.444.111c-.05-1.239.495-3.722 3.073-3.722h.022c.16 0 .961-.022 2.072.694l.106.067c1.1.711 1.655 1.066 2.91 1.066 1.04 0 1.862-.427 2.145-.638a2.4 2.4 0 0 1 1.084-.367c.5 0 1.922.489 1.922 2.5s-1.478 2.56-1.922 2.56c-.356 0-.873-.255-1.084-.389a4.35 4.35 0 0 0-2.144-.633 4.2 4.2 0 0 0-2.111.633c-.511.39-1.8 1.173-2.89 1.173-1.35 0-3.177-1.367-3.177-2.945z" clip-rule="evenodd"/>
</svg>
